X:1
T:Jock the Leg
M:4/4
L:1/4
K:C
 f3/2 d/2 e e/2e/2| d/2d/2 c A A| f3/2 d/2 e e| d3/2- c/2 A A| f3/2 d/2 e c|\
 d3/2 e/2 f e/2e/2| d c/2c/2 A A| G3/2- F/2 D E| F3/2 G/2 A c| d3/2 e/2 f e/2e/2|\
 d c/2c/2 A A| G3/2- F/2 D z|
